Yaru++/apps/16/soundconverter.svg

<svg height="16" width="16" xmlns="http://www.w3.org/2000/svg">
  <g fill="#808080">
    <path d="m6.068962 0v13.137933c-.643856-.288768-1.518075-.448279-2.482759-.448279-1.975673 0-3.586203.736835-3.586203 1.655177 0 .918335 1.61053 1.655169 3.586203 1.655169 1.975678 0 3.586209-.736827 3.586209-1.655169v-11.034484c2.647842 0 2.006554 2.872875 6.068967 2.75862-3.173227.0082-2.149013-6.039836-6.068967-6.068967z"/>
    <path d="m9.6574446 8.1649416v3.7609284l-.9376977-1.405702-.7197469.479832 2.089969 3.135797 2.089968-3.135797-.719747-.479832-.937697 1.405702v-3.7609284z"/>
    <path d="m14.232492 12.970855v-3.7609286l.937698 1.4057016.719746-.479831-2.089968-3.135797-2.089968 3.135797.719746.479831.937699-1.4057016v3.7609286z"/>
  </g>
</svg>

<svg xmlns="http://www.w3.org/2000/svg" xmlns:osb="http://www.openswatchbook.org/uri/2009/osb" width="16" height="16" version="1.1">
 <defs>
  <linearGradient id="linearGradient5606" osb:paint="solid">
   <stop id="stop5608" offset="0" style="stop-color:#000000"/>
  </linearGradient>
  <linearGradient id="linearGradient4526" osb:paint="solid">
   <stop id="stop4528" offset="0" style="stop-color:#ffffff"/>
  </linearGradient>
  <linearGradient id="linearGradient3600-4" osb:paint="gradient">
   <stop id="stop3602-7" offset="0" style="stop-color:#f4f4f4"/>
   <stop id="stop3604-6" offset="1" style="stop-color:#dbdbdb"/>
  </linearGradient>
 </defs>
 <path style="fill:#808080" d="M 6.068962,0 V 13.137933 C 5.425106,12.849165 4.550887,12.689654 3.586203,12.689654 1.61053,12.689654 0,13.426489 0,14.344831 0,15.263166 1.61053,16 3.586203,16 5.561881,16 7.172412,15.263173 7.172412,14.344831 V 3.310347 c 2.647842,0 2.006554,2.872875 6.068967,2.75862 C 10.068152,6.077167 11.092366,0.029131 7.172412,0 Z"/>
 <path style="fill:#808080" d="M 9.6574446,8.1649416 V 11.92587 L 8.7197469,10.520168 8,11 10.089969,14.135797 12.179937,11 11.46019,10.520168 10.522493,11.92587 V 8.1649416 Z"/>
 <path d="M 14.232492,12.970855 V 9.2099264 L 15.17019,10.615628 15.889936,10.135797 13.799968,7 11.71,10.135797 l 0.719746,0.479831 0.937699,-1.4057016 v 3.7609286 z" style="fill:#808080"/>
</svg>
